resources/haticons/SVG/link_off.svg

<!-- Generated by IcoMoon.io -->
<svg version="1.1" xmlns="http://www.w3.org/2000/svg" width="24" height="24" viewBox="0 0 24 24">
<title>link_off</title>
<path d="M2.016 4.266l1.266-1.266 16.734 16.734-1.266 1.266-4.031-3.984h-1.734v-1.734l-2.25-2.297h-2.719v-1.969h0.703l-2.063-2.063q-1.172 0.141-1.969 1.008t-0.797 2.039q0 1.266 0.914 2.18t2.18 0.914h4.031v1.922h-4.031q-2.063 0-3.516-1.477t-1.453-3.539q0-1.406 0.891-2.766t2.203-1.875zM15.984 11.016v1.969h-0.188l-1.969-1.969h2.156zM17.016 6.984q2.063 0 3.516 1.477t1.453 3.539q0 3.047-2.719 4.453l-1.453-1.453q0.984-0.234 1.641-1.078t0.656-1.922q0-1.266-0.914-2.18t-2.18-0.914h-4.031v-1.922h4.031z"></path>
</svg>

<svg xmlns="http://www.w3.org/2000/svg" width="24" height="24"><path d="M2.016 4.266L3.282 3l16.734 16.734L18.75 21l-4.031-3.984h-1.734v-1.734l-2.25-2.297H8.016v-1.969h.703L6.656 8.953q-1.172.141-1.969 1.008T3.89 12q0 1.266.914 2.18t2.18.914h4.031v1.922H6.984q-2.063 0-3.516-1.477T2.015 12q0-1.406.891-2.766t2.203-1.875zm13.968 6.75v1.969h-.188l-1.969-1.969h2.156zm1.032-4.032q2.063 0 3.516 1.477T21.985 12q0 3.047-2.719 4.453L17.813 15q.984-.234 1.641-1.078T20.11 12q0-1.266-.914-2.18t-2.18-.914h-4.031V6.984h4.031z"/></svg>
